svg/fluentui-system-icons/ic_fluent_multiplier_2x_32_regular.svg

<svg width="32" height="32" viewBox="0 0 32 32" fill="none" xmlns="http://www.w3.org/2000/svg">
<path d="M9.38621 12.6998L9.38638 12.6988L9.38529 12.7055C9.38654 12.6994 9.38957 12.6853 9.39484 12.6642C9.40543 12.6218 9.42464 12.553 9.45576 12.4668C9.51885 12.292 9.62534 12.0607 9.79574 11.8335C10.1099 11.4145 10.6895 10.9336 11.8662 10.9336C12.9425 10.9336 13.5949 11.2845 13.9571 11.7442C14.329 12.2161 14.539 12.9852 14.3479 14.0976C14.2408 14.7208 13.9338 15.0898 13.431 15.4128C13.0126 15.6816 12.5459 15.8711 11.9754 16.1028C11.7432 16.1972 11.4938 16.2985 11.2235 16.4149C10.3651 16.7847 9.37846 17.2853 8.62358 18.1877C7.84571 19.1176 7.40012 20.3651 7.40012 22.0669C7.40012 22.3321 7.50548 22.5865 7.69302 22.774C7.88055 22.9616 8.13491 23.0669 8.40012 23.0669H15.3335C15.8857 23.0669 16.3335 22.6192 16.3335 22.0669C16.3335 21.5146 15.8857 21.0669 15.3335 21.0669H9.47546C9.59796 20.3246 9.85709 19.8302 10.1576 19.471C10.5995 18.9427 11.2225 18.5931 12.0148 18.2517C12.1863 18.1778 12.3746 18.1015 12.5723 18.0213C13.2003 17.7667 13.924 17.4732 14.512 17.0954C15.3711 16.5435 16.0959 15.7349 16.319 14.4363C16.5746 12.9487 16.3513 11.5511 15.528 10.5063C14.6951 9.44931 13.3904 8.93359 11.8662 8.93359C10.0095 8.93359 8.85609 9.75272 8.19556 10.6337C7.87861 11.0564 7.68734 11.4752 7.57451 11.7879C7.51766 11.9454 7.47936 12.0798 7.45444 12.1796C7.44195 12.2296 7.43273 12.2713 7.42616 12.3033C7.42287 12.3193 7.42024 12.3329 7.41819 12.344L7.41553 12.3587L7.41452 12.3645L7.41408 12.3671L7.41388 12.3683C7.41388 12.3683 7.33092 12.866 7.41369 12.3694C7.32302 12.9142 7.69116 13.4294 8.23595 13.52C8.77748 13.6102 9.28971 13.247 9.38488 12.7075L9.38529 12.7055L9.38589 12.7017L9.38621 12.6998ZM19.7067 16.2932C19.3162 15.9026 18.683 15.9026 18.2925 16.2931C17.902 16.6836 17.9019 17.3168 18.2925 17.7073L20.0853 19.5002L18.2925 21.2932C17.9019 21.6837 17.902 22.3168 18.2925 22.7074C18.683 23.0979 19.3162 23.0979 19.7067 22.7073L21.4995 20.9145L23.2923 22.7073C23.6828 23.0979 24.3159 23.0979 24.7065 22.7074C25.097 22.3168 25.097 21.6837 24.7065 21.2932L22.9137 19.5002L24.7065 17.7073C25.097 17.3168 25.097 16.6836 24.7065 16.2931C24.3159 15.9026 23.6828 15.9026 23.2923 16.2932L21.4995 18.086L19.7067 16.2932Z" fill="#212121"/>
</svg>

<svg xmlns="http://www.w3.org/2000/svg" width="32" height="32"><path d="M9.386 12.7v-.001.007a2.06 2.06 0 0 1 .07-.239c.063-.175.17-.406.34-.633.314-.42.894-.9 2.07-.9 1.077 0 1.729.35 2.091.81.372.472.582 1.241.39 2.354-.106.623-.413.992-.916 1.315-.418.269-.885.458-1.456.69a35.02 35.02 0 0 0-.752.312c-.858.37-1.845.87-2.6 1.773-.777.93-1.223 2.177-1.223 3.879a1 1 0 0 0 1 1h6.934a1 1 0 0 0 0-2H9.475c.123-.742.382-1.237.683-1.596.442-.528 1.065-.878 1.857-1.22.171-.073.36-.15.557-.23.628-.254 1.352-.548 1.94-.926.86-.551 1.584-1.36 1.807-2.659.256-1.487.032-2.885-.791-3.93-.833-1.057-2.138-1.572-3.662-1.572-1.857 0-3.01.819-3.67 1.7a4.456 4.456 0 0 0-.742 1.546 3.013 3.013 0 0 0-.036.164l-.002.015-.001.005v.003l-.001.001s-.083.498 0 .001a1 1 0 0 0 1.97.338l.001-.002v-.003l.001-.002Zm10.32 3.593a1 1 0 1 0-1.413 1.414l1.792 1.793-1.793 1.793a1 1 0 1 0 1.415 1.414l1.793-1.793 1.792 1.793a1 1 0 1 0 1.414-1.414L22.914 19.5l1.792-1.793a1 1 0 0 0-1.414-1.414L21.5 18.086l-1.792-1.793Z"/></svg>
